X:24
T:Merionethshire March. JClw.24
M:4/4
L:1/8
Q:1/2=80
R:.march
S:J.Clews MS,Stoke-upon-Tern,Shrops.1832
A:N. Shropshire
Z:Neil Brookes 2006
K:G
D2|G2B>GA2d>c|Bgfe d2 cB|c2e>cB2 g>B|A2A>AA2D2|!
G2B>GA2d>c|Bgfe d2 (3Bcd|e2(3cde f2(3def|g2G>GG2::!
Bc|d2d>B d2g>d|e2e>c e2g>e|d2d>cB2G>B|A2A>AA2D2|!
G2B>GA2d>c|Bgfe d2 (3Bcd|e2(3cde f2(3def|g2G>GG2:|

